X: 36895
T: Shoemaker's Daughter, The
R: reel
M: 4/4
K: Gmajor
|:G2 DG BcdB|{A}G=FDE FDCD|{A}G2DG Bcde|=fdBd (3c/d/c/ABc|
dg ~g2 dc~c2|Bcde =fdBd|gfdc BG~G2|1 FGAF GDEF:|2 FGAF GABd||
|:g2 dg bgdg|gfde fgaf|g2 dg bgag|fdcA GABd|
gfdc BG~G2|FGAB {d}cABc|dg~g2 defd|1 cAFA GABd:|2 cAFA G4||

